public/assets/lamb.svg

<svg fill="#000000" xmlns="http://www.w3.org/2000/svg"  viewBox="0 0 32 32" width="200px" height="200px"><path d="M 19 16 L 21 16 C 21 19.023438 19 19.722656 19 19.722656 C 19 19.722656 17.867188 22 16 22 C 14.132813 22 13 19.722656 13 19.722656 C 13 19.722656 11 19.023438 11 16 L 13 16 C 13 16.550781 13.449219 17 14 17 C 14.550781 17 15 16.550781 15 16 L 17 16 C 17 16.550781 17.449219 17 18 17 C 18.550781 17 19 16.550781 19 16 Z M 28 18 C 28 19.625 27.191406 21.144531 25.863281 22.078125 C 25.445313 23.972656 23.972656 25.445313 22.078125 25.863281 C 21.144531 27.191406 19.625 28 18 28 C 17.308594 28 16.640625 27.855469 16 27.566406 C 15.359375 27.855469 14.691406 28 14 28 C 12.375 28 10.855469 27.191406 9.921875 25.863281 C 8.027344 25.445313 6.554688 23.972656 6.136719 22.078125 C 4.808594 21.144531 4 19.625 4 18 C 4 16.363281 4.796875 14.855469 6.109375 13.921875 C 6.042969 13.65625 6 13.378906 6 13.082031 C 6 11.578125 6.628906 10.574219 7.027344 10.089844 C 7.09375 9.558594 7.308594 8.660156 8.007813 7.953125 C 8.421875 7.535156 9.15625 7.042969 10.339844 7.003906 C 10.886719 5.839844 12.042969 5.050781 13.367188 5.003906 C 14.824219 3.71875 17.175781 3.71875 18.632813 5.003906 C 19.957031 5.050781 21.113281 5.839844 21.660156 7.003906 C 22.84375 7.042969 23.578125 7.535156 23.988281 7.953125 C 24.6875 8.660156 24.90625 9.558594 24.96875 10.089844 C 25.371094 10.574219 26 11.578125 26 13.082031 C 26 13.378906 25.957031 13.660156 25.886719 13.925781 C 27.199219 14.859375 28 16.371094 28 18 Z M 26 18 C 26 17.09375 25.574219 16.261719 24.886719 15.699219 C 24.246094 16.414063 23.558594 16.832031 23.503906 16.863281 L 22.496094 15.136719 C 22.910156 14.890625 24 14.035156 24 13.082031 C 24 11.898438 23.34375 11.265625 23.335938 11.257813 L 22.992188 10.953125 L 23 10.496094 C 22.996094 10.054688 22.84375 9 21.5 9 C 21.402344 9 21.230469 9.027344 21.160156 9.042969 L 20.148438 9.253906 L 19.972656 8.238281 C 19.84375 7.519531 19.226563 7 18.5 7 C 18.480469 7.003906 18.378906 7.015625 18.375 7.015625 L 17.847656 7.085938 L 17.492188 6.6875 C 16.710938 5.800781 15.289063 5.800781 14.507813 6.6875 L 14.15625 7.085938 L 13.625 7.015625 C 13.621094 7.015625 13.523438 7.003906 13.46875 7 C 12.773438 7 12.15625 7.519531 12.027344 8.238281 L 11.851563 9.246094 L 10.84375 9.042969 C 10.824219 9.039063 10.644531 9 10.5 9 C 9.15625 9 9.003906 10.054688 9 10.507813 L 8.996094 10.953125 L 8.664063 11.257813 C 8.648438 11.273438 8 11.898438 8 13.082031 C 8 14.035156 9.089844 14.890625 9.507813 15.136719 L 8.496094 16.863281 C 8.441406 16.832031 7.746094 16.410156 7.101563 15.683594 C 6.414063 16.246094 6 17.089844 6 18 C 6 19.066406 6.589844 20.0625 7.539063 20.601563 L 7.980469 20.847656 L 8.039063 21.351563 C 8.203125 22.726563 9.277344 23.796875 10.648438 23.960938 L 11.152344 24.019531 L 11.402344 24.460938 C 12.195313 25.867188 14.03125 26.433594 15.496094 25.582031 L 16 25.289063 L 16.503906 25.582031 C 17.96875 26.4375 19.804688 25.867188 20.597656 24.460938 L 20.847656 24.019531 L 21.351563 23.960938 C 22.722656 23.796875 23.796875 22.726563 23.957031 21.351563 L 24.019531 20.847656 L 24.460938 20.601563 C 25.410156 20.0625 26 19.066406 26 18 Z"/></svg>

<svg xmlns="http://www.w3.org/2000/svg" fill="#000000" viewBox="0 0 32 32" width="200" height="200" xmlns:v="https://vecta.io/nano"><path d="M19 16h2c0 3.023-2 3.723-2 3.723S17.867 22 16 22s-3-2.277-3-2.277-2-.699-2-3.723h2a1 1 0 1 0 2 0h2a1 1 0 1 0 2 0zm9 2a5 5 0 0 1-2.137 4.078c-.418 1.895-1.891 3.367-3.785 3.785A5 5 0 0 1 18 28c-.691 0-1.359-.145-2-.434-.641.289-1.309.434-2 .434a5 5 0 0 1-4.078-2.137c-1.895-.418-3.367-1.891-3.785-3.785A5 5 0 0 1 4 18a5 5 0 0 1 2.109-4.078c-.066-.266-.109-.543-.109-.84 0-1.504.629-2.508 1.027-2.992.066-.531.281-1.43.98-2.137.414-.418 1.148-.91 2.332-.949a3.48 3.48 0 0 1 3.027-2c1.457-1.285 3.809-1.285 5.266 0a3.48 3.48 0 0 1 3.027 2c1.184.039 1.918.531 2.328.949.699.707.918 1.605.98 2.137.402.484 1.031 1.488 1.031 2.992 0 .297-.043.578-.113.844C27.199 14.859 28 16.371 28 18zm-2 0c0-.906-.426-1.738-1.113-2.301-.641.715-1.328 1.133-1.383 1.164l-1.008-1.727C22.91 14.891 24 14.035 24 13.082c0-1.184-.656-1.816-.664-1.824l-.344-.305.008-.457C22.996 10.055 22.844 9 21.5 9c-.098 0-.27.027-.34.043l-1.012.211-.176-1.016C19.844 7.52 19.227 7 18.5 7c-.02.004-.121.016-.125.016l-.527.07-.355-.398a2.01 2.01 0 0 0-2.984 0l-.352.398-.531-.07c-.004 0-.102-.012-.156-.016-.695 0-1.312.52-1.441 1.238l-.176 1.008-1.008-.203C10.824 9.039 10.645 9 10.5 9 9.156 9 9.004 10.055 9 10.508l-.004.445-.332.305c-.016.016-.664.641-.664 1.824 0 .953 1.09 1.809 1.508 2.055l-1.012 1.727c-.055-.031-.75-.453-1.395-1.18A2.99 2.99 0 0 0 6 18c0 1.066.59 2.063 1.539 2.602l.441.246.059.504c.164 1.375 1.238 2.445 2.609 2.609l.504.059.25.441c.793 1.406 2.629 1.973 4.094 1.121l.504-.293.504.293c1.465.855 3.301.285 4.094-1.121l.25-.441.504-.059c1.371-.164 2.445-1.234 2.605-2.609l.063-.504.441-.246C25.41 20.063 26 19.066 26 18z"/></svg>
